packages/icons/src/speaker-exclamation.svg

<svg width="24" height="24" viewBox="0 0 24 24" fill="none" xmlns="http://www.w3.org/2000/svg">
<path d="M5.75 14.9998H9L12.725 18.7248C12.9583 18.9581 13.2292 19.0123 13.5375 18.8873C13.8458 18.7623 14 18.5331 14 18.1998V5.79978C14 5.46645 13.8458 5.23728 13.5375 5.11228C13.2292 4.98728 12.9583 5.04145 12.725 5.27478L9 8.99978H5.75C5.53333 8.99978 5.35417 9.07062 5.2125 9.21228C5.07083 9.35395 5 9.53312 5 9.74978V14.2498C5 14.4664 5.07083 14.6456 5.2125 14.7873C5.35417 14.9289 5.53333 14.9998 5.75 14.9998Z" fill="black"/>
<path d="M17.2929 16.8417C17.4881 17.0378 17.7234 17.1358 17.9987 17.1358C18.2741 17.1358 18.5098 17.0382 18.7059 16.843C18.902 16.6477 19 16.4124 19 16.1371C19 15.8617 18.9024 15.626 18.7071 15.4299C18.5119 15.2339 18.2766 15.1358 18.0013 15.1358C17.7259 15.1358 17.4902 15.2334 17.2941 15.4287C17.098 15.6239 17 15.8592 17 16.1345C17 16.4099 17.0976 16.6456 17.2929 16.8417Z" fill="black"/>
<path d="M17.2929 13.4135C17.4881 13.6093 17.7234 13.7072 17.9987 13.7072C18.2741 13.7072 18.5098 13.6093 18.7059 13.4135C18.902 13.2177 19 12.9822 19 12.7072V7.8501C19 7.5751 18.9024 7.33968 18.7071 7.14384C18.5119 6.94801 18.2766 6.8501 18.0013 6.8501C17.7259 6.8501 17.4902 6.94801 17.2941 7.14384C17.098 7.33968 17 7.5751 17 7.8501V12.7072C17 12.9822 17.0976 13.2177 17.2929 13.4135Z" fill="black"/>
</svg>

<svg xmlns="http://www.w3.org/2000/svg" width="24" height="24" fill="none" viewBox="0 0 24 24">
  <path fill="#000" d="M5.75 15H9l3.725 3.725c.233.233.504.287.813.162.308-.125.462-.354.462-.687V5.8c0-.334-.154-.563-.463-.688-.308-.125-.579-.07-.812.163L9 9H5.75a.729.729 0 0 0-.75.75v4.5a.729.729 0 0 0 .75.75Zm11.543 1.842a.96.96 0 0 0 .706.294.966.966 0 0 0 .707-.293.96.96 0 0 0 .294-.706.966.966 0 0 0-.293-.707.96.96 0 0 0-.706-.294.966.966 0 0 0-.707.293.96.96 0 0 0-.294.705c0 .276.098.512.293.708Zm0-3.428a.96.96 0 0 0 .706.293.965.965 0 0 0 .707-.293.962.962 0 0 0 .294-.707V7.85a.964.964 0 0 0-.293-.706.96.96 0 0 0-.706-.294.965.965 0 0 0-.707.294.962.962 0 0 0-.294.706v4.857c0 .275.098.51.293.707Z"/>
</svg>
